**kern	**kern
*staff1	*staff1
*solos[solo1,solo2,solo3,solo4]
=1-	=1-	!!Intro
*clefG2	*clefG2
*k[]	*k[]
*F:	*F:
*M4/4	*M4/4
1r	.
=2	=2
1r	.
=3	=3
1r	.
=4	=4
2r	.
4r	.
8r	.
*>head1
{8c/	.
=5	=5	!!Head
8B/L	1F:dom
8c/	.
8f/	.
8g#/J	.
8a/L	.
8f/	.
8d/	.
[8f/J	.
=6	=6
8f/L]	2B-:dom
8d/	.
8f/J	.
8r	.
8r	2B:o7
[8f/L	.
8f/]	.
8d/J	.
=7	=7
8f/}	1F:dom
8r	.
8r	.
{[8f/	.
8f/L]	.
8d/	.
8f/	.
8d/J	.
=8	=8
8a-/L	1F:dom
8an/J	.
24f/LL	.
24g/	.
24f/JJ	.
8d/	.
8f/L	.
8g/	.
8f/	.
8f/J}	.
=9	=9
4r	1B-:dom
8r	.
{8a/	.
8b-/L	.
8f/J	.
8r	.
[8a-/	.
=10	=10
8a-/L]	1B-:dom
[8b-/J	.
4b-\]	.
8ee-\L	.
8cc\	.
8ff\	.
8ee-\J	.
=11	=11
8r	1F:dom
8ff\	.
4cc\	.
4r	.
8r	.
[8ee\	.
=12	=12
4ee\]	2A:min
8g/L	.
8e/J	.
8f#\L	2D:dom
8ee-\	.
8cc\	.
8cc#\J	.
=13	=13
4dd\}	1G:min
8r	.
{8gg\	.
24ff#\LL	.
24gg\	.
24ff#\JJ	.
8dd\L	.
8b-\	.
8f\J	.
=14	=14
4ff\	1C:dom
8r	.
8ff\	.
8ee\L	.
8ee\	.
8dd\	.
8dd\J	.
=15	=15
4cc\	2F:dom
8r	.
[8f/	.
8f/L]	2D:dom
8d/J	.
4f/	.
=16	=16
8r	2G:min
[8f/L	.
8f/]	.
8d/J	.
4f/}	2C:dom
8r	.
*>solo1
{8c/	.
=17	=17	!!Chorus 1
4f/	1F:dom
8g/L	.
8g#/J	.
4a/	.
8a#/L	.
8b/J	.
=18:|!	=18:|!
8cc/L	1F:dom
8a/J	.
12b-\L	.
12cc\	.
12b-\J	.
8a/L	.
8f/	.
8d/	.
8c/J	.
=19	=19
24g/LL	1F:dom
24a/	.
24g/JJ	.
8f/L	.
8e-/	.
[8f/J	.
4f/]}	.
4r	.
=20	=20
2r	2C:min
4r	2F:dom
8r	.
{[8ff\	.
=21	=21
8ff\L]	1B-:dom
16cc\L	.
16b-\J	.
8a-\	.
8f\J	.
8g/L	.
8f/	.
8e-/	.
8d/J	.
=22	=22
4c/	1B-:dom
8B-/L	.
8F/J	.
8G#/L	.
8A/	.
8B-/	.
8Bn/J	.
=23	=23
8c/L	1F:dom
16d/L	.
16c/J	.
8A/	.
8c/J	.
8e/L	.
[8d/J	.
4d/]}	.
=24	=24
2r	2A:min
2r	2D:dom
=25	=25
4r	1G:min
8r	.
{24g\LL	.
24b-\	.
24dd\JJ	.
8ff\L	.
8ee\	.
8dd\	.
8dd-\J	.
=26	=26
8cc\L	1C:dom
8a\	.
8b-\	.
16cc\L	.
16b-\JJ	.
8a/L	.
8f/	.
8d/	.
8c/J	.
=27	=27
8g/L	1F:dom
8f/	.
8g/	.
[8a/J	.
4a/]}	.
4r	.
=28	=28
1r	1C:dom
=29	=29	!!Chorus 2
8r	1F:dom
*solo2
{4f/	.
8a-/	.
8b-\L	.
16b-\L	.
16bn\J	.
8b\	.
8b\J	.
=30||	=30||
8b-\L	1F:dom
16a-\L	.
16f\J	.
8.b-\	.
16bn\Jk	.
4b-\}	.
4r	.
=31	=31
4r	1F:dom
8r	.
{8f/	.
8g#/L	.
8a/	.
8b-/	.
8bn/J	.
=32	=32
24cc\LL	2C:min
24dd\	.
24cc\JJ	.
8a/L	.
8f/	.
[8e-/J	.
4e-/]	2F:dom
8r	.
8g/	.
=33	=33
24f/LL	1B-:dom
24g/	.
24f/JJ	.
8d/L	.
8B-/	.
8G/J	.
4A-/}	.
4r	.
=34	=34
2r	1B-:dom
{4cc\	.
8ff\L	.
8cc\J	.
=35	=35
8b-\L	1F:dom
16cc\L	.
16b-\J	.
8a\	.
8b-\J	.
8cc/L	.
[8a/J	.
4a/]}	.
=36	=36
1r	1D:dom
=37	=37
4r	1G:min
{16f#/LL	.
16g/	.
16b-/	.
16dd/JJ	.
16ff\LL	.
16dd\	.
16ee-\	.
16een\JJ	.
16cc\LL	.
16cc#\	.
16dd\	.
16ccn\JJ	.
=38	=38
16b-/LL	1C:dom
16a/	.
16g/	.
16f/JJ	.
16e/LL	.
16g/	.
16b-/	.
16dd-/JJ	.
16cc/LL	.
16a/JJ	.
24b-\LL	.
24cc\	.
24b-\JJ	.
16a/LL	.
16f/	.
16d/	.
16c/JJ	.
=39	=39
4f/	1F:dom
8r	.
8e-/	.
8d-/L	.
[8c/J	.
4c/]}	.
=40	=40
4r	1C:dom
8r	.
*>solo3
{8c/	.
8f/L	.
8a/	.
8cc/	.
[8ff/J	.
=41	=41	!!Chorus 3
4ff\]	1F:dom
8ee-\L	.
16dd\L	.
16cc\JJ	.
8b-/L	.
8a/	.
8g/	.
8g-/J	.
=42||	=42||
8f/L	1B-:dom
8e-/J	.
12d/L	.
12f/	.
12a/J	.
8cc\L	.
8b-\	.
8d-\	.
8b-\J	.
=43	=43
24a/LL	1F:dom
24b-/	.
24a/JJ	.
8f/L	.
8d/	.
8c/J	.
24g/LL	.
24a-/	.
24g/JJ	.
8f/L	.
8e-/	.
8f/J	.
=44	=44
8d/L	2C:min
8f/	.
8d-/	.
[8c/J	.
4c/]}	2F:dom
4r	.
=45	=45
2r	1B-:dom
4r	.
8r	.
{[8aa-\	.
=46	=46
8aa-\L]	1B-:dom
[8gg\J	.
16gg\LL]	.
16ff\JJ	.
8r	.
8ee-\L	.
8cc\	.
8b-\	.
8f\J	.
=47	=47
4.a/	1F:dom
8cc\}	.
4r	.
8r	.
{8b-\	.
=48	=48
24a/LL	1D:dom
24b-/	.
24a/JJ	.
8g/L	.
8f#/	.
8a/J	.
8cc\L	.
8ee-\	.
8dd\	.
8a\J	.
=49	=49
8cc\L	1G:min
[8b-\J	.
4b-\]}	.
4r	.
8r	.
{32ff\LLL	.
32ee\	.
32dd\	.
32cc\JJJ	.
=50	=50
8b-/L	1C:dom
8a/	.
8g/	.
8f/J	.
12e/L	.
12g/	.
12b-/J	.
16dd-\LL	.
16ee-\J	.
[8cc\J	.
=51	=51
8cc\L]	1F:dom
16b-\L	.
16cc\JJ	.
4a/}	.
2r	.
=52	=52
8r	1C:dom
*>solo4
{[8g/	.
2.g/_	.
=53	=53	!!Chorus 4
4.g/]	1F:dom
8f/	.
24b-\LL	.
24cc\	.
24b-\JJ	.
8a/	.
[4a-/	.
=54	=54
4a-/]	1B-:dom
16f/LL	.
16g/	.
16f/	.
16e/JJ	.
4e-/	.
8c/L	.
[8g/J	.
=55	=55
4g/]	1F:dom
8e-/L	.
8c/J	.
8f/L	.
[8c/J	.
4c/]}	.
=56	=56
1r	1F:dom
=57	=57
4r	1B-:dom
8r	.
{8cc\	.
8ff\L	.
16cc\L	.
16b-\J	.
8a-\	.
[8f\J	.
=58	=58
4f/]	1B-:dom
8ff\L	.
16cc\L	.
16b-\JJ	.
8a-/L	.
[8d/J	.
4d/]}	.
=59	=59
4r	1F:dom
8r	.
{8e/	.
12f/L	.
12a/	.
12cc/J	.
8ee\L	.
[8dd\J	.
=60	=60
4dd\]	2F:dom
24cc\LL	.
24dd\	.
24cc\JJ	.
8b-\	.
8a/L	2D:dom
8g/	.
8g-/	.
8a/J	.
=61	=61
8g/L	1G:min
8dd/J	.
24b-\LL	.
24cc\	.
24b-\JJ	.
8g/	.
8g-/L	.
8d/	.
8B-/	.
8G/J	.
=62	=62
8f/L	1C:dom
8d#/	.
8e/	.
8cc/J}	.
4r	.
8r	.
{8b-\	.
=63	=63
8a\L	1F:dom
8cc\	.
8cc\	.
8cc\J	.
8b-/L	.
8a/	.
8f/	.
8c/J	.
=64	=64
4.a/	2G:min
8f/	.
8g/L	2C:dom
8f/	.
8d/	.
[8c/J	.
=65	=65
4c/]}	1F:dom
4r	.
2r	.
==	==
*-	*-
